assets/icons/social-linkedin.svg

<?xml version="1.0" encoding="UTF-8"?>
<svg width="36px" height="36px" viewBox="0 0 36 36" version="1.1" xmlns="http://www.w3.org/2000/svg" xmlns:xlink="http://www.w3.org/1999/xlink">
    <!-- Generator: Sketch 47.1 (45422) - http://www.bohemiancoding.com/sketch -->
    <title>menu-linkedin</title>
    <desc>Created with Sketch.</desc>
    <defs></defs>
    <g id="Page-1" stroke="none" stroke-width="1" fill="none" fill-rule="evenodd" opacity="0.8">
        <g id="intranet.st.5" transform="translate(-100.000000, -954.000000)" fill-rule="nonzero" fill="#FFFFFF">
            <g id="Aside-Left" transform="translate(0.000000, 80.000000)">
                <g id="Group-16" transform="translate(100.000000, 823.000000)">
                    <g id="Group" transform="translate(0.000000, 51.000000)">
                        <g id="menu-linkedin">
                            <path d="M18,0 C8.0595,0 0,8.0595 0,18 C0,27.9405 8.0595,36 18,36 C27.9405,36 36,27.9405 36,18 C36,8.0595 27.9405,0 18,0 Z M12.4119,10.8387 C13.4802,10.8387 14.1372,11.7099 14.1579,12.6189 C14.1579,13.5099 13.4802,14.4 12.3903,14.4 L12.3705,14.4 C11.3229,14.4 10.6452,13.509 10.6452,12.6189 C10.6452,11.7099 11.3436,10.8387 12.4119,10.8387 Z M14.4,25.2 L10.8,25.2 L10.8,15.3 L14.4,15.3 L14.4,25.2 Z M26.1,25.2 L22.5,25.2 L22.5,20.0061 C22.5,18.7578 22.3092,17.9064 21.2202,17.9064 C20.3877,17.9064 20.1132,18.4806 19.8945,19.0341 C19.8153,19.2348 19.8,19.5111 19.8,19.7883 L19.8,25.2 L16.2,25.2 L16.2,15.3 L19.8,15.3 L19.8,16.9911 C19.8,16.3584 20.9232,15.4701 22.5198,15.4701 C24.4989,15.4701 26.1,15.6996 26.1,18.9 L26.1,25.2 Z" id="Shape"></path>
                        </g>
                    </g>
                </g>
            </g>
        </g>
    </g>
</svg>

<svg id="Layer_1" data-name="Layer 1" xmlns="http://www.w3.org/2000/svg" viewBox="0 0 36 36"><title>social-linkedin</title><g id="Page-1"><g id="intranet.st.5"><g id="Aside-Left"><g id="Group-16"><g id="Group"><g id="menu-linkedin"><path id="Shape" d="M18,0A18,18,0,1,0,36,18,18,18,0,0,0,18,0ZM12.41,10.84a1.78,1.78,0,0,1,0,3.56h0A1.78,1.78,0,0,1,12.41,10.84Zm2,14.36H10.8V15.3h3.6v9.9h0Zm11.7,0H22.5V20c0-1.25-.19-2.1-1.28-2.1A1.38,1.38,0,0,0,19.89,19a2.19,2.19,0,0,0-.09.75V25.2H16.2V15.3h3.6V17c0-.63,1.12-1.52,2.72-1.52,2,0,3.58.23,3.58,3.43v6.3h0Z"/></g></g></g></g></g></g></svg>
